source/img/energo/activity-4.svg

<svg width="87" height="104" viewBox="0 0 87 104" fill="none" xmlns="http://www.w3.org/2000/svg">
<path fill-rule="evenodd" clip-rule="evenodd" d="M43.2427 0.508301L63.2817 35.1557L63.2985 35.1909C69.7532 48.6785 68.5334 57.4392 63.4728 62.9176C58.5354 68.2627 50.2328 70.1168 43.3537 70.5792L43.3028 70.5826L43.2518 70.5809C36.5293 70.347 31.5513 68.8237 27.995 66.3915C24.423 63.9485 22.3593 60.6385 21.3939 56.9878C19.4823 49.7592 21.8734 41.2283 25.1141 35.1554C25.1147 35.1541 25.1154 35.1529 25.1161 35.1517L43.2427 0.508301ZM43.3304 4.65466L26.8805 36.0935C23.7534 41.9519 21.5988 49.9395 23.3274 56.4765C24.1824 59.7094 25.986 62.5946 29.124 64.7406C32.2695 66.8919 36.8285 68.3494 43.2704 68.5803C50.0322 68.1192 57.6262 66.2994 62.0037 61.5605C66.2653 56.947 67.7748 49.1969 61.5112 36.0894L43.3304 4.65466Z" fill="white"/>
<path d="M58.5014 46.9537C60.2995 57.0005 50.1103 61.8726 47.7129 61.5681C52.7475 58.6455 49.511 55.1738 51.3091 49.6937C52.0283 46.0403 56.4036 46.3447 58.5014 46.9537Z" fill="white"/>
<path fill-rule="evenodd" clip-rule="evenodd" d="M67.0857 95.4411C65.3917 95.8517 63.9007 97.3137 63.0522 98.625L63.0249 98.6672L62.9935 98.7064C60.3915 101.959 57.5288 102.771 54.9633 102.249C52.5109 101.75 50.525 100.072 49.4343 98.7095C47.0144 95.7327 44.8327 95.2914 43.1651 95.6584C41.3787 96.0515 39.8695 97.437 39.0367 98.6482L39.0201 98.6725L39.002 98.6956C36.0581 102.481 33.106 103.532 30.4942 102.877C28.0546 102.264 26.2835 100.239 25.3734 98.6296C24.2621 97.1616 23.1991 96.3398 22.2472 95.9226C21.2958 95.5056 20.4 95.4679 19.5726 95.6567C17.8643 96.0463 16.3764 97.427 15.5367 98.6482L15.5274 98.6617L15.5177 98.6749C14.048 100.67 12.5366 101.95 11.0148 102.643C9.47799 103.343 7.98631 103.419 6.62844 103.091C3.97299 102.452 1.93732 100.31 0.867188 98.6157L2.55817 97.5477C3.48803 99.02 5.15236 100.679 7.09692 101.147C8.03904 101.374 9.07236 101.33 10.1856 100.823C11.3111 100.311 12.5714 99.2986 13.8983 97.5011C14.8944 96.058 16.7521 94.2487 19.1278 93.7068C20.3462 93.4288 21.6817 93.4911 23.05 94.0908C24.4068 94.6854 25.7382 95.7824 27.0127 97.4817L27.0537 97.5364L27.0868 97.5961C27.8543 98.9775 29.269 100.507 30.9811 100.937C32.5493 101.33 34.7576 100.885 37.4061 97.4899C38.4111 96.0389 40.2942 94.2422 42.7353 93.7051C45.3088 93.1388 48.2095 94.0305 50.9888 97.4511L50.9936 97.457L50.9935 97.457C51.9034 98.5943 53.5163 99.9137 55.3621 100.289C57.0887 100.641 59.2144 100.208 61.4018 97.4944C62.3938 95.9793 64.2401 94.0729 66.6146 93.4974C67.8453 93.1991 69.194 93.2669 70.5707 93.908C71.9218 94.5372 73.2408 95.69 74.5012 97.4648C75.4145 98.5172 76.9908 99.7283 78.7558 100.076C79.6281 100.247 80.544 100.209 81.474 99.8421C82.4073 99.4741 83.4144 98.7519 84.4264 97.4639L85.999 98.6995C84.8109 100.212 83.5305 101.181 82.2076 101.703C80.8814 102.226 79.5723 102.275 78.3696 102.038C76.0035 101.572 74.0447 100.006 72.9534 98.7325L72.9228 98.6968L72.8957 98.6584C71.7647 97.0561 70.685 96.1674 69.7265 95.7211C68.7834 95.282 67.9008 95.2436 67.0857 95.4411Z" fill="white"/>
<path fill-rule="evenodd" clip-rule="evenodd" d="M68.0857 88.6955C66.3917 89.1061 64.9007 90.5681 64.0522 91.8794L64.0249 91.9216L63.9935 91.9608C61.3915 95.2134 58.5288 96.0256 55.9633 95.5036C53.5109 95.0045 51.525 93.3261 50.4343 91.9639C48.0144 88.9871 45.8327 88.5458 44.1651 88.9128C42.3787 89.3059 40.8695 90.6914 40.0367 91.9026L40.0201 91.9269L40.002 91.95C37.0581 95.7351 34.106 96.7866 31.4942 96.1311C29.0546 95.5187 27.2835 93.493 26.3734 91.884C25.2621 90.416 24.1991 89.5942 23.2472 89.177C22.2958 88.76 21.4 88.7223 20.5726 88.9111C18.8643 89.3007 17.3764 90.6813 16.5367 91.9026L16.5274 91.9161L16.5177 91.9293C15.048 93.9239 13.5366 95.2043 12.0148 95.8977C10.478 96.5978 8.98631 96.673 7.62844 96.3458C4.97299 95.706 2.93732 93.5645 1.86719 91.8701L3.55817 90.8021C4.48803 92.2744 6.15236 93.9329 8.09692 94.4014C9.03904 94.6284 10.0724 94.5848 11.1856 94.0777C12.3111 93.5649 13.5714 92.553 14.8983 90.7555C15.8944 89.3124 17.7521 87.503 20.1278 86.9611C21.3462 86.6832 22.6817 86.7455 24.05 87.3452C25.4068 87.9398 26.7382 89.0368 28.0127 90.7361L28.0537 90.7908L28.0868 90.8505C28.8543 92.2319 30.269 93.7615 31.9811 94.1912C33.5493 94.5848 35.7576 94.1391 38.4061 90.7443C39.4111 89.2933 41.2942 87.4966 43.7353 86.9595C46.3088 86.3932 49.2095 87.2849 51.9888 90.7055L51.9936 90.7114L51.9935 90.7114C52.9034 91.8487 54.5163 93.1681 56.3621 93.5437C58.0887 93.8951 60.2144 93.4628 62.4018 90.7488C63.3938 89.2337 65.2401 87.3273 67.6146 86.7518C68.8453 86.4535 70.194 86.5213 71.5707 87.1624C72.9218 87.7915 74.2408 88.9444 75.5012 90.7192C76.4145 91.7716 77.9908 92.9827 79.7558 93.33C80.6281 93.5017 81.544 93.4632 82.474 93.0965C83.4073 92.7285 84.4144 92.0062 85.4264 90.7183L86.999 91.9539C85.8109 93.466 84.5305 94.4355 83.2076 94.9571C81.8814 95.48 80.5723 95.5291 79.3696 95.2924C77.0035 94.8268 75.0447 93.2601 73.9534 91.9869L73.9228 91.9512L73.8957 91.9128C72.7647 90.3105 71.685 89.4218 70.7265 88.9755C69.7834 88.5364 68.9008 88.498 68.0857 88.6955Z" fill="white"/>
<path fill-rule="evenodd" clip-rule="evenodd" d="M68.0857 81.6955C66.3917 82.1061 64.9007 83.5681 64.0522 84.8794L64.0249 84.9216L63.9935 84.9608C61.3915 88.2134 58.5288 89.0256 55.9633 88.5036C53.5109 88.0045 51.525 86.3261 50.4343 84.9639C48.0144 81.9871 45.8327 81.5458 44.1651 81.9128C42.3787 82.3059 40.8695 83.6914 40.0367 84.9026L40.0201 84.9269L40.002 84.95C37.0581 88.7351 34.106 89.7866 31.4942 89.1311C29.0546 88.5187 27.2835 86.493 26.3734 84.884C25.2621 83.416 24.1991 82.5942 23.2472 82.177C22.2958 81.76 21.4 81.7223 20.5726 81.9111C18.8643 82.3007 17.3764 83.6813 16.5367 84.9026L16.5274 84.9161L16.5177 84.9293C15.048 86.9239 13.5366 88.2043 12.0148 88.8977C10.478 89.5978 8.98631 89.673 7.62844 89.3458C4.97299 88.706 2.93732 86.5645 1.86719 84.8701L3.55817 83.8021C4.48803 85.2744 6.15236 86.9329 8.09692 87.4014C9.03904 87.6284 10.0724 87.5848 11.1856 87.0777C12.3111 86.5649 13.5714 85.553 14.8983 83.7555C15.8944 82.3124 17.7521 80.503 20.1278 79.9611C21.3462 79.6832 22.6817 79.7455 24.05 80.3452C25.4068 80.9398 26.7382 82.0368 28.0127 83.7361L28.0537 83.7908L28.0868 83.8505C28.8543 85.2319 30.269 86.7615 31.9811 87.1912C33.5493 87.5848 35.7576 87.1391 38.4061 83.7443C39.4111 82.2933 41.2942 80.4966 43.7353 79.9595C46.3088 79.3932 49.2095 80.2849 51.9888 83.7055L51.9936 83.7114L51.9935 83.7114C52.9034 84.8487 54.5163 86.1681 56.3621 86.5437C58.0887 86.8951 60.2144 86.4628 62.4018 83.7488C63.3938 82.2337 65.2401 80.3273 67.6146 79.7518C68.8453 79.4535 70.194 79.5213 71.5707 80.1624C72.9218 80.7915 74.2408 81.9444 75.5012 83.7192C76.4145 84.7716 77.9908 85.9827 79.7558 86.33C80.6281 86.5017 81.544 86.4632 82.474 86.0965C83.4073 85.7285 84.4144 85.0062 85.4264 83.7183L86.999 84.9539C85.8109 86.466 84.5305 87.4355 83.2076 87.9571C81.8814 88.48 80.5723 88.5291 79.3696 88.2924C77.0035 87.8268 75.0447 86.2601 73.9534 84.9869L73.9228 84.9512L73.8957 84.9128C72.7647 83.3105 71.685 82.4218 70.7265 81.9755C69.7834 81.5364 68.9008 81.498 68.0857 81.6955Z" fill="white"/>
<path fill-rule="evenodd" clip-rule="evenodd" d="M68.0857 75.6955C66.3917 76.1061 64.9007 77.5681 64.0522 78.8794L64.0249 78.9216L63.9935 78.9608C61.3915 82.2134 58.5288 83.0256 55.9633 82.5036C53.5109 82.0045 51.525 80.3261 50.4343 78.9639C48.0144 75.9871 45.8327 75.5458 44.1651 75.9128C42.3787 76.3059 40.8695 77.6914 40.0367 78.9026L40.0201 78.9269L40.002 78.95C37.0581 82.7351 34.106 83.7866 31.4942 83.1311C29.0546 82.5187 27.2835 80.493 26.3734 78.884C25.2621 77.416 24.1991 76.5942 23.2472 76.177C22.2958 75.76 21.4 75.7223 20.5726 75.9111C18.8643 76.3007 17.3764 77.6813 16.5367 78.9026L16.5274 78.9161L16.5177 78.9293C15.048 80.9239 13.5366 82.2043 12.0148 82.8977C10.478 83.5978 8.98631 83.673 7.62844 83.3458C4.97299 82.706 2.93732 80.5645 1.86719 78.8701L3.55817 77.8021C4.48803 79.2744 6.15236 80.9329 8.09692 81.4014C9.03904 81.6284 10.0724 81.5848 11.1856 81.0777C12.3111 80.5649 13.5714 79.553 14.8983 77.7555C15.8944 76.3124 17.7521 74.503 20.1278 73.9611C21.3462 73.6832 22.6817 73.7455 24.05 74.3452C25.4068 74.9398 26.7382 76.0368 28.0127 77.7361L28.0537 77.7908L28.0868 77.8505C28.8543 79.2319 30.269 80.7615 31.9811 81.1912C33.5493 81.5848 35.7576 81.1391 38.4061 77.7443C39.4111 76.2933 41.2942 74.4966 43.7353 73.9595C46.3088 73.3932 49.2095 74.2849 51.9888 77.7055L51.9936 77.7114L51.9935 77.7114C52.9034 78.8487 54.5163 80.1681 56.3621 80.5437C58.0887 80.8951 60.2144 80.4628 62.4018 77.7488C63.3938 76.2337 65.2401 74.3273 67.6146 73.7518C68.8453 73.4535 70.194 73.5213 71.5707 74.1624C72.9218 74.7915 74.2408 75.9444 75.5012 77.7192C76.4145 78.7716 77.9908 79.9827 79.7558 80.33C80.6281 80.5017 81.544 80.4632 82.474 80.0965C83.4073 79.7285 84.4144 79.0062 85.4264 77.7183L86.999 78.9539C85.8109 80.466 84.5305 81.4355 83.2076 81.9571C81.8814 82.48 80.5723 82.5291 79.3696 82.2924C77.0035 81.8268 75.0447 80.2601 73.9534 78.9869L73.9228 78.9512L73.8957 78.9128C72.7647 77.3105 71.685 76.4218 70.7265 75.9755C69.7834 75.5364 68.9008 75.498 68.0857 75.6955Z" fill="white"/>
<path fill-rule="evenodd" clip-rule="evenodd" d="M34.6967 73.3822C33.2337 74.3525 31.978 74.4414 30.9811 74.1912C29.269 73.7615 27.8543 72.2319 27.0868 70.8505L27.0537 70.7908L27.0127 70.7361C25.7382 69.0368 24.4068 67.9398 23.05 67.3452C21.6817 66.7455 20.3462 66.6832 19.1278 66.9611C16.7521 67.503 14.8944 69.3124 13.8983 70.7555C12.5714 72.553 11.3111 73.5649 10.1856 74.0777C9.07237 74.5848 8.03904 74.6284 7.09692 74.4014C5.15236 73.9329 3.48803 72.2744 2.55817 70.8021L0.867188 71.8701C1.93732 73.5645 3.97299 75.706 6.62844 76.3458C7.98631 76.673 9.47799 76.5978 11.0148 75.8977C12.5366 75.2043 14.048 73.9239 15.5177 71.9293L15.5274 71.9161L15.5367 71.9026C16.3764 70.6813 17.8643 69.3007 19.5726 68.9111C20.4 68.7223 21.2958 68.76 22.2472 69.177C23.1991 69.5942 24.2621 70.416 25.3734 71.884C26.2835 73.493 28.0546 75.5187 30.4942 76.1311C32.601 76.6599 34.9293 76.0779 37.296 73.8464L34.6967 73.3822ZM50.9323 73.4816C52.0085 74.3777 53.3899 75.1834 54.9633 75.5036C57.5288 76.0256 60.3915 75.2134 62.9935 71.9608L63.0249 71.9216L63.0522 71.8794C63.9007 70.5681 65.3917 69.1061 67.0857 68.6955C67.9008 68.498 68.7834 68.5364 69.7265 68.9755C70.685 69.4218 71.7647 70.3105 72.8957 71.9128L72.9228 71.9512L72.9534 71.9869C74.0447 73.2601 76.0035 74.8268 78.3696 75.2924C79.5723 75.5291 80.8814 75.48 82.2076 74.9571C83.5305 74.4355 84.8109 73.466 85.999 71.9539L84.4264 70.7183C83.4144 72.0062 82.4073 72.7285 81.474 73.0965C80.544 73.4632 79.6281 73.5017 78.7558 73.33C76.9908 72.9827 75.4145 71.7716 74.5012 70.7192C73.2408 68.9444 71.9218 67.7915 70.5707 67.1624C69.194 66.5213 67.8453 66.4535 66.6146 66.7518C64.2401 67.3273 62.3938 69.2337 61.4018 70.7488C59.2144 73.4628 57.0887 73.8951 55.3621 73.5437C54.722 73.4135 54.1099 73.1697 53.5455 72.8594L50.9323 73.4816Z" fill="white"/>
</svg>

<svg width="87" height="104" fill="none" xmlns="http://www.w3.org/2000/svg"><path fill-rule="evenodd" clip-rule="evenodd" d="M43.243.508l20.039 34.648.017.035c6.454 13.487 5.234 22.248.174 27.727-4.938 5.345-13.24 7.199-20.12 7.661l-.05.004-.051-.002c-6.723-.234-11.7-1.757-15.257-4.19-3.572-2.443-5.636-5.753-6.601-9.403-1.912-7.229.48-15.76 3.72-21.833l.002-.003L43.243.508zm.087 4.147L26.88 36.093c-3.127 5.859-5.281 13.846-3.553 20.383.855 3.233 2.659 6.119 5.797 8.265 3.146 2.15 7.704 3.608 14.146 3.84 6.762-.462 14.356-2.282 18.734-7.02 4.261-4.614 5.77-12.364-.493-25.472L43.331 4.655z" fill="#fff"/><path d="M58.501 46.954C60.3 57 50.111 61.873 47.713 61.568c5.035-2.922 1.798-6.394 3.596-11.874.72-3.654 5.095-3.35 7.192-2.74z" fill="#fff"/><path fill-rule="evenodd" clip-rule="evenodd" d="M67.086 95.441c-1.694.41-3.185 1.873-4.034 3.184l-.027.042-.032.04c-2.602 3.252-5.464 4.064-8.03 3.542-2.452-.499-4.438-2.177-5.529-3.54-2.42-2.976-4.601-3.418-6.269-3.05-1.786.392-3.295 1.778-4.128 2.99l-.017.023-.018.024c-2.944 3.785-5.896 4.836-8.508 4.181-2.44-.613-4.21-2.638-5.12-4.247-1.112-1.468-2.175-2.29-3.127-2.707a4.178 4.178 0 00-2.674-.266c-1.709.39-3.197 1.77-4.036 2.991l-.01.014-.01.013c-1.469 1.995-2.98 3.275-4.502 3.968-1.537.7-3.029.776-4.387.448-2.655-.639-4.69-2.781-5.76-4.475l1.69-1.068c.93 1.472 2.594 3.131 4.539 3.599.942.227 1.975.183 3.089-.324 1.125-.512 2.385-1.524 3.712-3.322.996-1.443 2.854-3.252 5.23-3.794a6.177 6.177 0 013.922.384c1.357.594 2.688 1.691 3.963 3.39l.04.055.034.06c.767 1.382 2.182 2.911 3.894 3.341 1.568.393 3.777-.052 6.425-3.447 1.005-1.451 2.888-3.248 5.33-3.785 2.573-.566 5.474.326 8.253 3.746l.005.006c.91 1.137 2.522 2.457 4.368 2.832 1.727.352 3.852-.081 6.04-2.795.992-1.515 2.838-3.421 5.213-3.997 1.23-.298 2.579-.23 3.956.411 1.35.63 2.67 1.782 3.93 3.557.913 1.052 2.49 2.263 4.255 2.611a4.769 4.769 0 002.718-.234c.933-.368 1.94-1.09 2.952-2.378L86 98.7c-1.188 1.512-2.468 2.481-3.791 3.003a6.76 6.76 0 01-3.838.335c-2.367-.466-4.325-2.032-5.417-3.305l-.03-.036-.027-.039c-1.131-1.602-2.211-2.49-3.17-2.937-.943-.439-1.825-.477-2.64-.28z" fill="#fff"/><path fill-rule="evenodd" clip-rule="evenodd" d="M68.086 88.695c-1.694.411-3.185 1.873-4.034 3.184l-.027.043-.032.039c-2.602 3.252-5.464 4.065-8.03 3.543-2.452-.5-4.438-2.178-5.529-3.54-2.42-2.977-4.601-3.418-6.269-3.051-1.786.393-3.295 1.778-4.128 2.99l-.017.024-.018.023c-2.944 3.785-5.896 4.837-8.508 4.181-2.44-.612-4.21-2.638-5.12-4.247-1.112-1.468-2.175-2.29-3.127-2.707a4.178 4.178 0 00-2.674-.266c-1.709.39-3.197 1.77-4.036 2.992l-.01.013-.01.013c-1.469 1.995-2.98 3.275-4.502 3.969-1.537.7-3.029.775-4.387.448-2.655-.64-4.69-2.782-5.76-4.476l1.69-1.068c.93 1.472 2.594 3.13 4.539 3.6.942.226 1.975.183 3.089-.324 1.125-.513 2.385-1.525 3.712-3.323.996-1.443 2.854-3.252 5.23-3.794a6.178 6.178 0 013.922.384c1.357.595 2.688 1.692 3.963 3.391l.04.055.034.06c.767 1.38 2.182 2.91 3.894 3.34 1.568.394 3.777-.052 6.425-3.447 1.005-1.45 2.888-3.247 5.33-3.784 2.573-.567 5.474.325 8.253 3.746l.005.005c.91 1.138 2.522 2.457 4.368 2.833 1.727.351 3.852-.081 6.04-2.795.992-1.515 2.838-3.422 5.213-3.997 1.23-.298 2.579-.23 3.956.41 1.35.63 2.67 1.782 3.93 3.557.913 1.053 2.49 2.264 4.255 2.611a4.764 4.764 0 002.718-.233c.933-.368 1.94-1.09 2.952-2.379L87 91.954c-1.188 1.512-2.468 2.482-3.791 3.003a6.764 6.764 0 01-3.838.335c-2.367-.465-4.325-2.032-5.417-3.305l-.03-.036-.027-.038c-1.131-1.602-2.211-2.491-3.17-2.938-.943-.439-1.825-.477-2.64-.28z" fill="#fff"/><path fill-rule="evenodd" clip-rule="evenodd" d="M68.086 81.695c-1.694.411-3.185 1.873-4.034 3.184l-.027.043-.032.039c-2.602 3.252-5.464 4.065-8.03 3.543-2.452-.5-4.438-2.178-5.529-3.54-2.42-2.977-4.601-3.418-6.269-3.051-1.786.393-3.295 1.778-4.128 2.99l-.017.024-.018.023c-2.944 3.785-5.896 4.837-8.508 4.181-2.44-.612-4.21-2.638-5.12-4.247-1.112-1.468-2.175-2.29-3.127-2.707a4.178 4.178 0 00-2.674-.266c-1.709.39-3.197 1.77-4.036 2.992l-.01.013-.01.013c-1.469 1.995-2.98 3.275-4.502 3.969-1.537.7-3.029.775-4.387.448-2.655-.64-4.69-2.782-5.76-4.476l1.69-1.068c.93 1.472 2.594 3.13 4.539 3.6.942.226 1.975.183 3.089-.324 1.125-.513 2.385-1.525 3.712-3.323.996-1.443 2.854-3.252 5.23-3.794a6.178 6.178 0 013.922.384c1.357.595 2.688 1.692 3.963 3.391l.04.055.034.06c.767 1.38 2.182 2.91 3.894 3.34 1.568.394 3.777-.052 6.425-3.447 1.005-1.45 2.888-3.247 5.33-3.784 2.573-.567 5.474.325 8.253 3.746l.005.005c.91 1.138 2.522 2.457 4.368 2.833 1.727.351 3.852-.081 6.04-2.795.992-1.515 2.838-3.422 5.213-3.997 1.23-.298 2.579-.23 3.956.41 1.35.63 2.67 1.782 3.93 3.557.913 1.053 2.49 2.264 4.255 2.611a4.764 4.764 0 002.718-.233c.933-.368 1.94-1.09 2.952-2.379L87 84.954c-1.188 1.512-2.468 2.482-3.791 3.003a6.764 6.764 0 01-3.838.335c-2.367-.465-4.325-2.032-5.417-3.305l-.03-.036-.027-.038c-1.131-1.602-2.211-2.491-3.17-2.938-.943-.439-1.825-.477-2.64-.28z" fill="#fff"/><path fill-rule="evenodd" clip-rule="evenodd" d="M68.086 75.695c-1.694.411-3.185 1.873-4.034 3.184l-.027.043-.032.039c-2.602 3.252-5.464 4.065-8.03 3.543-2.452-.5-4.438-2.178-5.529-3.54-2.42-2.977-4.601-3.418-6.269-3.051-1.786.393-3.295 1.778-4.128 2.99l-.017.024-.018.023c-2.944 3.785-5.896 4.837-8.508 4.181-2.44-.612-4.21-2.638-5.12-4.247-1.112-1.468-2.175-2.29-3.127-2.707a4.178 4.178 0 00-2.674-.266c-1.709.39-3.197 1.77-4.036 2.992l-.01.013-.01.013c-1.469 1.995-2.98 3.275-4.502 3.969-1.537.7-3.029.775-4.387.448-2.655-.64-4.69-2.782-5.76-4.476l1.69-1.068c.93 1.472 2.594 3.13 4.539 3.6.942.226 1.975.183 3.089-.324 1.125-.513 2.385-1.525 3.712-3.323.996-1.443 2.854-3.252 5.23-3.794a6.178 6.178 0 013.922.384c1.357.595 2.688 1.692 3.963 3.391l.04.055.034.06c.767 1.38 2.182 2.91 3.894 3.34 1.568.394 3.777-.052 6.425-3.447 1.005-1.45 2.888-3.247 5.33-3.784 2.573-.567 5.474.325 8.253 3.746l.005.005c.91 1.138 2.522 2.457 4.368 2.833 1.727.351 3.852-.081 6.04-2.795.992-1.515 2.838-3.422 5.213-3.997 1.23-.298 2.579-.23 3.956.41 1.35.63 2.67 1.782 3.93 3.557.913 1.053 2.49 2.264 4.255 2.611a4.764 4.764 0 002.718-.233c.933-.368 1.94-1.09 2.952-2.379L87 78.954c-1.188 1.512-2.468 2.482-3.791 3.003a6.764 6.764 0 01-3.838.335c-2.367-.465-4.325-2.032-5.417-3.305l-.03-.036-.027-.038c-1.131-1.602-2.211-2.491-3.17-2.938-.943-.439-1.825-.477-2.64-.28z" fill="#fff"/><path fill-rule="evenodd" clip-rule="evenodd" d="M34.697 73.382c-1.463.97-2.719 1.06-3.716.81-1.712-.43-3.127-1.96-3.894-3.341l-.033-.06-.041-.055c-1.275-1.7-2.606-2.796-3.963-3.39a6.178 6.178 0 00-3.922-.385c-2.376.542-4.234 2.351-5.23 3.794-1.327 1.798-2.587 2.81-3.712 3.323-1.114.507-2.147.55-3.09.323-1.944-.468-3.608-2.127-4.538-3.599L.868 71.87c1.07 1.694 3.105 3.836 5.76 4.476 1.358.327 2.85.252 4.387-.448 1.522-.694 3.033-1.974 4.503-3.969l.01-.013.009-.013c.84-1.222 2.327-2.602 4.036-2.992a4.178 4.178 0 012.674.266c.952.417 2.015 1.239 3.126 2.707.91 1.609 2.682 3.635 5.121 4.247 2.107.529 4.435-.053 6.802-2.285l-2.6-.464zm16.235.1c1.076.896 2.458 1.701 4.031 2.022 2.566.522 5.428-.29 8.03-3.543l.032-.04.027-.042c.849-1.31 2.34-2.773 4.034-3.184.815-.197 1.697-.159 2.64.28.959.447 2.039 1.336 3.17 2.938l.027.038.03.036c1.092 1.273 3.05 2.84 5.417 3.305a6.764 6.764 0 003.838-.335c1.323-.521 2.603-1.491 3.791-3.003l-1.573-1.236c-1.012 1.288-2.019 2.01-2.952 2.379a4.764 4.764 0 01-2.718.233c-1.765-.347-3.341-1.558-4.255-2.61-1.26-1.776-2.58-2.928-3.93-3.558-1.377-.64-2.726-.709-3.956-.41-2.375.575-4.221 2.482-5.213 3.997-2.188 2.714-4.313 3.146-6.04 2.795a6.47 6.47 0 01-1.817-.685l-2.613.623z" fill="#fff"/></svg>
